!!!SOCIAL_FUNCTION:	songs of dances presented at makah day celebrations
!!!PDT:	1939
!!!OTL: No_60_Song_With_Spearman's_Dance.krn
!!!LANG: Non-Tone
!!!LING_GROUP: Wakashan
!!!REG: Pacific Northwest
**kern	**kern
*staff2	*staff1
=1-	=1-
*clefF4	*clefF4
*k[]	*k[]
*M3/4	*M3/4
12GG/	2d\
12r	.
12GG/	.
12GG/	.
12r	.
12GG/	.
12GG/	8.e\L
12r	.
12GG/	.
.	16c\Jk
=2||	=2||
*M2/4	*M2/4
12GG/	4c\
12r	.
12GG/	.
12GG/	8A\
12r	.
.	16r
12GG/	.
.	16e\
=3||	=3||
*M3/4	*M3/4
12GG/	2e\
12r	.
12GG/	.
12GG/	.
12r	.
12GG/	.
12GG/	8.d\L
12r	.
12GG/	.
.	16B\Jk
=4||	=4||
*M2/4	*M2/4
12GG/	4d\
12r	.
12GG/	.
12GG/	4c\
12r	.
12GG/	.
=5	=5
12GG/	4c\
12r	.
12GG/	.
12GG/	8r
12r	.
.	16r
12GG/	.
.	16d\
=6	=6
12GG/	[2d\
12r	.
12GG/	.
12GG/	.
12r	.
12GG/	.
=7	=7
12GG/	4.d\]
12r	.
12GG/	.
12GG/	.
12r	.
.	8r
12GG/	.
=8	=8
12GG/	4d\
12r	.
12GG/	.
12GG/	8.e\L
12r	.
12GG/	.
.	16c\Jk
=9	=9
12GG/	4c\
12r	.
12GG/	.
12GG/	8A\
12r	.
.	8r
12GG/	.
=10	=10
12GG/	[2c\
12r	.
12GG/	.
12GG/	.
12r	.
12GG/	.
=11	=11
12GG/	4c\]
12r	.
12GG/	.
12GG/	8A\L
12r	.
.	8A\J
12GG/	.
=12||	=12||
*M3/4	*M3/4
12GG/	2A\
12r	.
12GG/	.
12GG/	.
12r	.
12GG/	.
12GG/	4r
12r	.
12GG/	.
=13||	=13||
*M2/4	*M2/4
12GG/	4c\
12r	.
12GG/	.
12GG/	8r
12r	.
.	16c\
12GG/	.
.	16r
=14||	=14||
*M5/8	*M5/8
3...r	16c\
.	16r
.	16c\
.	16r
.	16c\
.	16r
.	16c\
.	16r
.	16c\LL
.	16c\JJ
=15||	=15||
*M2/4	*M2/4
12GG/	[2c\
12r	.
12GG/	.
12GG/	.
12r	.
12GG/	.
=16||	=16||
*M3/4	*M3/4
12GG/	4.c\]
12r	.
12GG/	.
12GG/	.
12r	.
.	8r
12GG/	.
12GG/	8A\L
12r	.
.	8A\J
12GG/	.
=17||	=17||
*M2/4	*M2/4
12GG/	4.A\
12r	.
12GG/	.
12GG/	.
12r	.
.	8r
12GG/	.
=18!|:	=18!|:
12GG/	12A\L
12r	12A\
12GG/	12c\J
12GG/	[12d\L
12r	12d\]
12GG/	[12d\J
=19	=19
12GG/	12d\L]
12r	12c\
12GG/	12c\J
12GG/	8c\
12r	.
.	8r
12GG/	.
=20	=20
12GG/	12d\L
12r	12d\
12GG/	12d\J
12GG/	[12d\L
12r	12d\]
12GG/	[12d\J
=21	=21
12GG/	12d\L]
12r	12c\
12GG/	12c\J
12GG/	8c\
12r	.
.	8r
12GG/	.
=22	=22
12GG/	12A\L
12r	12A\
12GG/	12c\J
12GG/	[12c\L
12r	12c\]
12GG/	[12c\J
=23	=23
12GG/	12c\L]
12r	12A\
12GG/	12A\J
12GG/	8A\
12r	.
.	8r
12GG/	.
=24	=24
12GG/	12c\L
12r	12c\
12GG/	12c\J
12GG/	[12c\L
12r	12c\]
12GG/	[12c\J
=25	=25
12GG/	12c\L]
12r	12c\
12GG/	12c\J
12GG/	8c\
12r	.
.	8r
12GG/	.
=26	=26
12GG/	12c\L
12r	12c\
12GG/	12c\J
12GG/	[12c\L
12r	12c\]
12GG/	[12c\J
=27	=27
12GG/	12c\L]
12r	12A\
12GG/	12A\J
12GG/	8A\
12r	.
.	8r
12GG/	.
=28	=28
12GG/	12E\L
12r	12E\
12GG/	12A\J
12GG/	[12c\L
12r	12c\]
12GG/	[12c\J
=29	=29
12GG/	12c\L]
12r	12c\
12GG/	12c\J
12GG/	8c\
12r	.
.	8r
12GG/	.
=30	=30
12GG/	4r
12r	.
12GG/	.
12GG/	8r
12r	.
.	16c\LL
12GG/	.
.	16c\JJ
=31||	=31||
!!pagebreak:default
*M3/4	*M3/4
12GG/	2c\
12r	.
12GG/	.
12GG/	.
12r	.
12GG/	.
12GG/	8A\L
12r	.
.	8A\J
12GG/	.
=32||	=32||
*M2/4	*M2/4
12GG/	4A\
12r	.
12GG/	.
12GG/	4r
12r	.
12GG/	.
==:|!	==:|!
*-	*-
